svg/bucket.svg

<?xml version="1.0" encoding="UTF-8" standalone="no"?>
<svg
   xmlns:dc="http://purl.org/dc/elements/1.1/"
   xmlns:cc="http://creativecommons.org/ns#"
   xmlns:rdf="http://www.w3.org/1999/02/22-rdf-syntax-ns#"
   xmlns:svg="http://www.w3.org/2000/svg"
   xmlns="http://www.w3.org/2000/svg"
   xmlns:sodipodi="http://sodipodi.sourceforge.net/DTD/sodipodi-0.dtd"
   xmlns:inkscape="http://www.inkscape.org/namespaces/inkscape"
   version="1.1"
   x="0"
   y="0"
   width="88mm"
   height="125mm"
   viewBox="0 0 110.86614 157.48031"
   id="svg37"
   sodipodi:docname="bucket.svg"
   inkscape:version="1.0.2-2 (e86c870879, 2021-01-15)">
  <metadata
     id="metadata43">
    <rdf:RDF>
      <cc:Work
         rdf:about="">
        <dc:format>image/svg+xml</dc:format>
        <dc:type
           rdf:resource="http://purl.org/dc/dcmitype/StillImage" />
        <dc:title></dc:title>
      </cc:Work>
    </rdf:RDF>
  </metadata>
  <defs
     id="defs41" />
  <sodipodi:namedview
     pagecolor="#ffffff"
     bordercolor="#666666"
     borderopacity="1"
     objecttolerance="10"
     gridtolerance="10"
     guidetolerance="10"
     inkscape:pageopacity="0"
     inkscape:pageshadow="2"
     inkscape:window-width="1920"
     inkscape:window-height="1017"
     id="namedview39"
     showgrid="false"
     units="mm"
     inkscape:zoom="0.37101282"
     inkscape:cx="663.73195"
     inkscape:cy="755.5168"
     inkscape:window-x="-8"
     inkscape:window-y="-8"
     inkscape:window-maximized="1"
     inkscape:current-layer="svg37" />
  <g
     id="Layer_1"
     transform="matrix(0.19766945,0,0,0.2395951,5.3503725,16.017562)">
    <path
       d="M 260.613,5.885 C 119.391,5.885 4.906,40.365 4.906,82.898 l 59.049,390.069 c 16.942,25.569 93.743,44.856 196.658,44.856 102.928,0 179.006,-19.29 195.765,-44.861 L 516.322,82.898 C 516.322,40.365 401.837,5.885 260.613,5.885"
       fill="#fffffe"
       id="path2" />
    <path
       d="m 260.613,173.689 c -44.029,0 -88.229,-3.176 -127.021,-9.414 l 36.694,348.91 c 28.727,4.432 60.621,7.005 90.327,7.005 82.928,0 182.371,-20.073 182.371,-44.831 l 55.06,-349.705 c -36.06,31.632 -137.232,48.035 -237.431,48.035"
       fill="#cacbc9"
       id="path4" />
    <path
       d="m 23.183,125.654 54.149,349.705 c 0,10.198 17.016,19.599 42.823,27.132 L 75.618,151.282 C 52.93,144.319 34.715,135.769 23.183,125.654"
       fill="#fffffe"
       id="path6" />
    <path
       d="m 75.618,151.282 44.537,351.209 c 6.268,1.83 13.061,3.546 20.247,5.139 L 103.694,158.606 c -9.939,-2.205 -19.344,-4.645 -28.076,-7.324"
       fill="#cacbc9"
       id="path8" />
    <path
       d="m 103.694,158.606 36.708,349.024 c 9.369,2.076 19.413,3.941 29.884,5.555 l -36.694,-348.91 c -10.391,-1.67 -20.393,-3.561 -29.898,-5.669"
       fill="#fffffe"
       id="path10" />
    <path
       d="M 260.613,5.885 C 119.391,5.885 4.906,40.365 4.906,82.898 l 59.049,390.069 c 16.942,25.569 93.743,44.856 196.658,44.856 102.928,0 179.006,-19.29 195.765,-44.861 L 516.322,82.898 C 516.322,40.365 401.837,5.885 260.613,5.885 Z"
       fill-opacity="0"
       stroke="#010604"
       stroke-width="9.813"
       stroke-linecap="round"
       stroke-linejoin="round"
       id="path12" />
    <path
       d="m 501.244,86.151 c 0,36.226 -107.723,65.592 -240.631,65.592 -132.907,0 -240.629,-29.366 -240.629,-65.592 0,-36.227 107.722,-65.593 240.629,-65.593 132.908,0 240.631,29.366 240.631,65.593"
       fill="#b0b1af"
       id="path14" />
    <path
       d="m 260.613,517.823 c -102.915,0 -179.716,-19.287 -196.658,-44.856 l 1.183,7.812 c 0,29.997 81.282,54.315 195.475,54.315 114.197,0 194.566,-24.318 194.566,-54.315 l 1.199,-7.817 c -16.759,25.571 -92.837,44.861 -195.765,44.861"
       fill="#fffffe"
       id="path16" />
    <path
       d="m 260.613,517.823 c -102.915,0 -179.716,-19.287 -196.658,-44.856 l 1.183,7.812 c 0,29.997 81.282,54.315 195.475,54.315 114.197,0 194.566,-24.318 194.566,-54.315 l 1.199,-7.817 c -16.759,25.571 -92.837,44.861 -195.765,44.861 z"
       fill-opacity="0"
       stroke="#010604"
       stroke-width="9.813"
       stroke-linecap="round"
       stroke-linejoin="round"
       id="path18" />
    <path
       d="m 154.43,145.021 c 32.028,4.301 68.065,6.722 106.183,6.722 69.088,0 131.359,-7.937 175.242,-20.646 -16.499,-4.818 -36.246,-8.942 -58.4,-12.179 -75.276,-3.497 -154.051,-3.816 -223.025,26.103"
       fill="#8dd1e6"
       id="path20" />
    <path
       d="m 377.455,118.918 c -34.198,-4.996 -74.145,-7.87 -116.842,-7.87 -70.353,0 -133.277,7.793 -175.241,20.049 19.67,5.696 43.043,10.43 69.058,13.924 68.974,-29.919 147.749,-29.6 223.025,-26.103"
       fill="#cee9e7"
       id="path22" />
    <path
       d="m 220.15,233.724 c -17.607,0 -31.932,-14.325 -31.932,-31.932 0,-17.606 14.325,-31.93 31.932,-31.93 17.606,0 31.93,14.324 31.93,31.93 0,17.607 -14.324,31.932 -31.93,31.932"
       fill="#888988"
       id="path24" />
    <path
       d="m 220.15,165.773 c -19.861,0 -36.02,16.159 -36.02,36.019 0,19.862 16.159,36.02 36.02,36.02 19.861,0 36.018,-16.158 36.018,-36.02 0,-19.86 -16.157,-36.019 -36.018,-36.019 z m 0,8.178 c 15.377,0 27.841,12.466 27.841,27.841 0,15.378 -12.464,27.843 -27.841,27.843 -15.377,0 -27.843,-12.465 -27.843,-27.843 0,-15.375 12.466,-27.841 27.843,-27.841"
       fill="#010604"
       id="path26" />
    <path
       d="m 501.244,86.151 c 0,36.226 -107.723,65.592 -240.631,65.592 -132.907,0 -240.629,-29.366 -240.629,-65.592 0,-36.227 107.722,-65.593 240.629,-65.593 132.908,0 240.631,29.366 240.631,65.593 z"
       fill-opacity="0"
       stroke="#010604"
       stroke-width="4.906"
       stroke-linecap="round"
       stroke-linejoin="round"
       id="path28" />
    <path
       d="m 502.849,409.717 c 0.588,-0.639 1.174,-1.277 1.727,-1.948 0.363,-0.439 0.703,-0.899 1.05,-1.352 0.516,-0.671 1.03,-1.348 1.514,-2.048 0.328,-0.477 0.639,-0.968 0.955,-1.458 0.461,-0.721 0.918,-1.448 1.35,-2.197 0.289,-0.504 0.566,-1.017 0.842,-1.532 0.416,-0.779 0.818,-1.568 1.203,-2.374 0.248,-0.519 0.488,-1.046 0.722,-1.577 0.375,-0.847 0.731,-1.71 1.073,-2.587 0.205,-0.524 0.408,-1.048 0.599,-1.582 0.336,-0.936 0.651,-1.891 0.951,-2.856 0.157,-0.507 0.321,-1.01 0.469,-1.525 0.303,-1.056 0.58,-2.136 0.844,-3.226 0.109,-0.456 0.228,-0.904 0.332,-1.363 0.277,-1.247 0.521,-2.519 0.75,-3.807 0.059,-0.331 0.127,-0.654 0.184,-0.99 1.111,-6.695 1.56,-13.945 1.396,-21.677 -0.004,-0.192 -0.016,-0.389 -0.019,-0.582 -0.043,-1.72 -0.114,-3.462 -0.215,-5.229 -0.022,-0.349 -0.051,-0.703 -0.073,-1.052 -0.105,-1.629 -0.23,-3.27 -0.382,-4.935 -0.016,-0.151 -0.022,-0.295 -0.036,-0.445 -0.003,-10e-4 -0.007,-0.003 -0.009,-0.003 -2.676,-28.175 -12.26,-61.57 -26.838,-97.246 l -8.164,53.131 c 3.687,12.6 6.371,24.309 8.062,34.958 0.276,1.723 0.52,3.412 0.74,5.077 0.034,0.254 0.069,0.51 0.102,0.764 0.227,1.756 0.43,3.485 0.596,5.177 0.004,0.024 0.004,0.048 0.008,0.072 0.16,1.642 0.291,3.246 0.396,4.826 0.018,0.227 0.033,0.455 0.047,0.68 0.103,1.619 0.18,3.212 0.225,4.762 0,0.003 0,0.006 0,0.01 0.041,1.507 0.046,2.973 0.035,4.414 -0.004,0.225 -0.006,0.45 -0.008,0.673 -0.024,1.458 -0.07,2.888 -0.152,4.274 0,0.004 0,0.006 0,0.009 -0.079,1.346 -0.194,2.647 -0.327,3.923 -0.023,0.226 -0.048,0.453 -0.074,0.676 -0.144,1.284 -0.312,2.54 -0.516,3.75 0,0.015 -0.003,0.028 -0.007,0.041 -0.196,1.167 -0.426,2.288 -0.676,3.385 -0.051,0.224 -0.102,0.448 -0.154,0.668 -0.266,1.104 -0.551,2.18 -0.871,3.207 -0.01,0.022 -0.016,0.045 -0.024,0.067 -0.31,0.986 -0.65,1.925 -1.014,2.838 -0.082,0.213 -0.166,0.423 -0.252,0.633 -0.382,0.92 -0.783,1.812 -1.218,2.655 -0.012,0.025 -0.028,0.047 -0.039,0.071 -0.42,0.809 -0.873,1.571 -1.344,2.308 -0.119,0.184 -0.238,0.367 -0.359,0.547 -0.499,0.738 -1.012,1.449 -1.563,2.11 -0.012,0.013 -0.027,0.028 -0.041,0.043 -0.535,0.639 -1.105,1.227 -1.693,1.79 -0.153,0.145 -0.305,0.289 -0.461,0.429 -0.616,0.554 -1.244,1.085 -1.912,1.556 -0.485,0.344 -0.991,0.659 -1.506,0.962 -0.201,0.116 -0.408,0.221 -0.612,0.331 -0.318,0.174 -0.636,0.339 -0.964,0.497 -0.274,0.129 -0.551,0.253 -0.831,0.372 -0.259,0.112 -0.525,0.219 -0.791,0.323 -0.339,0.13 -0.677,0.257 -1.027,0.373 -0.182,0.061 -0.369,0.115 -0.553,0.173 -2.06,0.635 -4.293,1.049 -6.691,1.229 -19.586,1.468 -50.139,-12.243 -85.695,-39.062 -49.922,-37.658 -104.36,-96.467 -153.288,-165.599 -4.06,-5.738 -12.003,-7.095 -17.74,-3.037 -5.736,4.061 -7.093,12.002 -3.035,17.741 79.791,112.733 187.758,214.546 255.82,215.586 0.35,0.004 0.708,0.023 1.057,0.023 11.449,0 21.752,-2.899 30.561,-9.138 1.172,-0.828 2.291,-1.706 3.369,-2.623 0.353,-0.301 0.676,-0.626 1.017,-0.935 0.707,-0.638 1.414,-1.276 2.079,-1.952 0.38,-0.386 0.732,-0.797 1.099,-1.197"
       fill="#979897"
       id="path30" />
    <path
       d="m 502.849,409.717 c 0.588,-0.639 1.174,-1.277 1.727,-1.948 0.363,-0.439 0.703,-0.899 1.05,-1.352 0.516,-0.671 1.03,-1.348 1.514,-2.048 0.328,-0.477 0.639,-0.968 0.955,-1.458 0.461,-0.721 0.918,-1.448 1.35,-2.197 0.289,-0.504 0.566,-1.017 0.842,-1.532 0.416,-0.779 0.818,-1.568 1.203,-2.374 0.248,-0.519 0.488,-1.046 0.722,-1.577 0.375,-0.847 0.731,-1.71 1.073,-2.587 0.205,-0.524 0.408,-1.048 0.599,-1.582 0.336,-0.936 0.651,-1.891 0.951,-2.856 0.157,-0.507 0.321,-1.01 0.469,-1.525 0.303,-1.056 0.58,-2.136 0.844,-3.226 0.109,-0.456 0.228,-0.904 0.332,-1.363 0.277,-1.247 0.521,-2.519 0.75,-3.807 0.059,-0.331 0.127,-0.654 0.184,-0.99 1.111,-6.695 1.56,-13.945 1.396,-21.677 -0.004,-0.192 -0.016,-0.389 -0.019,-0.582 -0.043,-1.72 -0.114,-3.462 -0.215,-5.229 -0.022,-0.349 -0.051,-0.703 -0.073,-1.052 -0.105,-1.629 -0.23,-3.27 -0.382,-4.935 -0.016,-0.151 -0.022,-0.295 -0.036,-0.445 -0.003,-10e-4 -0.007,-0.003 -0.009,-0.003 -2.676,-28.175 -12.26,-61.57 -26.838,-97.246 l -8.164,53.131 c 3.687,12.6 6.371,24.309 8.062,34.958 0.276,1.723 0.52,3.412 0.74,5.077 0.034,0.254 0.069,0.51 0.102,0.764 0.227,1.756 0.43,3.485 0.596,5.177 0.004,0.024 0.004,0.048 0.008,0.072 0.16,1.642 0.291,3.246 0.396,4.826 0.018,0.227 0.033,0.455 0.047,0.68 0.103,1.619 0.18,3.212 0.225,4.762 0,0.003 0,0.006 0,0.01 0.041,1.507 0.046,2.973 0.035,4.414 -0.004,0.225 -0.006,0.45 -0.008,0.673 -0.024,1.458 -0.07,2.888 -0.152,4.274 0,0.004 0,0.006 0,0.009 -0.079,1.346 -0.194,2.647 -0.327,3.923 -0.023,0.226 -0.048,0.453 -0.074,0.676 -0.144,1.284 -0.312,2.54 -0.516,3.75 0,0.015 -0.003,0.028 -0.007,0.041 -0.196,1.167 -0.426,2.288 -0.676,3.385 -0.051,0.224 -0.102,0.448 -0.154,0.668 -0.266,1.104 -0.551,2.18 -0.871,3.207 -0.01,0.022 -0.016,0.045 -0.024,0.067 -0.31,0.986 -0.65,1.925 -1.014,2.838 -0.082,0.213 -0.166,0.423 -0.252,0.633 -0.382,0.92 -0.783,1.812 -1.218,2.655 -0.012,0.025 -0.028,0.047 -0.039,0.071 -0.42,0.809 -0.873,1.571 -1.344,2.308 -0.119,0.184 -0.238,0.367 -0.359,0.547 -0.499,0.738 -1.012,1.449 -1.563,2.11 -0.012,0.013 -0.027,0.028 -0.041,0.043 -0.535,0.639 -1.105,1.227 -1.693,1.79 -0.153,0.145 -0.305,0.289 -0.461,0.429 -0.616,0.554 -1.244,1.085 -1.912,1.556 -0.485,0.344 -0.991,0.659 -1.506,0.962 -0.201,0.116 -0.408,0.221 -0.612,0.331 -0.318,0.174 -0.636,0.339 -0.964,0.497 -0.274,0.129 -0.551,0.253 -0.831,0.372 -0.259,0.112 -0.525,0.219 -0.791,0.323 -0.339,0.13 -0.677,0.257 -1.027,0.373 -0.182,0.061 -0.369,0.115 -0.553,0.173 -2.06,0.635 -4.293,1.049 -6.691,1.229 -19.586,1.468 -50.139,-12.243 -85.695,-39.062 -49.922,-37.658 -104.36,-96.467 -153.288,-165.599 -4.06,-5.738 -12.003,-7.095 -17.74,-3.037 -5.736,4.061 -7.093,12.002 -3.035,17.741 79.791,112.733 187.758,214.546 255.82,215.586 0.35,0.004 0.708,0.023 1.057,0.023 11.449,0 21.752,-2.899 30.561,-9.138 1.172,-0.828 2.291,-1.706 3.369,-2.623 0.353,-0.301 0.676,-0.626 1.017,-0.935 0.707,-0.638 1.414,-1.276 2.079,-1.952 0.38,-0.386 0.732,-0.797 1.099,-1.197 z"
       fill-opacity="0"
       stroke="#010604"
       stroke-width="4.906"
       id="path32" />
    <path
       d="m 260.613,151.743 c 69.088,0 131.359,-7.937 175.242,-20.646 -41.967,-12.256 -104.885,-20.049 -175.242,-20.049 -70.353,0 -133.277,7.793 -175.241,20.049 43.884,12.709 106.159,20.646 175.241,20.646 z"
       fill-opacity="0"
       stroke="#010604"
       stroke-width="4.906"
       stroke-linecap="round"
       stroke-linejoin="round"
       id="path34" />
  </g>
</svg>

<?xml version="1.0" encoding="UTF-8"?>
<!DOCTYPE svg PUBLIC "-//W3C//DTD SVG 1.1//EN" "http://www.w3.org/Graphics/SVG/1.1/DTD/svg11.dtd">
<svg version="1.1" xmlns="http://www.w3.org/2000/svg" xmlns:xlink="http://www.w3.org/1999/xlink" x="0" y="0" width="1566" height="1620" viewBox="0, 0, 522, 540">
  <g id="Layer_1">
    <path d="M260.613,5.885 C119.391,5.885 4.906,40.365 4.906,82.898 L63.955,472.967 C80.897,498.536 157.698,517.823 260.613,517.823 C363.541,517.823 439.619,498.533 456.378,472.962 L516.322,82.898 C516.322,40.365 401.837,5.885 260.613,5.885" fill="#FFFFFE"/>
    <path d="M260.613,173.689 C216.584,173.689 172.384,170.513 133.592,164.275 L170.286,513.185 C199.013,517.617 230.907,520.19 260.613,520.19 C343.541,520.19 442.984,500.117 442.984,475.359 L498.044,125.654 C461.984,157.286 360.812,173.689 260.613,173.689" fill="#CACBC9"/>
    <path d="M23.183,125.654 L77.332,475.359 C77.332,485.557 94.348,494.958 120.155,502.491 L75.618,151.282 C52.93,144.319 34.715,135.769 23.183,125.654" fill="#FFFFFE"/>
    <path d="M75.618,151.282 L120.155,502.491 C126.423,504.321 133.216,506.037 140.402,507.63 L103.694,158.606 C93.755,156.401 84.35,153.961 75.618,151.282" fill="#CACBC9"/>
    <path d="M103.694,158.606 L140.402,507.63 C149.771,509.706 159.815,511.571 170.286,513.185 L133.592,164.275 C123.201,162.605 113.199,160.714 103.694,158.606" fill="#FFFFFE"/>
    <path d="M260.613,5.885 C119.391,5.885 4.906,40.365 4.906,82.898 L63.955,472.967 C80.897,498.536 157.698,517.823 260.613,517.823 C363.541,517.823 439.619,498.533 456.378,472.962 L516.322,82.898 C516.322,40.365 401.837,5.885 260.613,5.885 z" fill-opacity="0" stroke="#010604" stroke-width="9.813" stroke-linecap="round" stroke-linejoin="round"/>
    <path d="M501.244,86.151 C501.244,122.377 393.521,151.743 260.613,151.743 C127.706,151.743 19.984,122.377 19.984,86.151 C19.984,49.924 127.706,20.558 260.613,20.558 C393.521,20.558 501.244,49.924 501.244,86.151" fill="#B0B1AF"/>
    <path d="M260.613,517.823 C157.698,517.823 80.897,498.536 63.955,472.967 L65.138,480.779 C65.138,510.776 146.42,535.094 260.613,535.094 C374.81,535.094 455.179,510.776 455.179,480.779 L456.378,472.962 C439.619,498.533 363.541,517.823 260.613,517.823" fill="#FFFFFE"/>
    <path d="M260.613,517.823 C157.698,517.823 80.897,498.536 63.955,472.967 L65.138,480.779 C65.138,510.776 146.42,535.094 260.613,535.094 C374.81,535.094 455.179,510.776 455.179,480.779 L456.378,472.962 C439.619,498.533 363.541,517.823 260.613,517.823 z" fill-opacity="0" stroke="#010604" stroke-width="9.813" stroke-linecap="round" stroke-linejoin="round"/>
    <path d="M154.43,145.021 C186.458,149.322 222.495,151.743 260.613,151.743 C329.701,151.743 391.972,143.806 435.855,131.097 C419.356,126.279 399.609,122.155 377.455,118.918 C302.179,115.421 223.404,115.102 154.43,145.021" fill="#8DD1E6"/>
    <path d="M377.455,118.918 C343.257,113.922 303.31,111.048 260.613,111.048 C190.26,111.048 127.336,118.841 85.372,131.097 C105.042,136.793 128.415,141.527 154.43,145.021 C223.404,115.102 302.179,115.421 377.455,118.918" fill="#CEE9E7"/>
    <path d="M220.15,233.724 C202.543,233.724 188.218,219.399 188.218,201.792 C188.218,184.186 202.543,169.862 220.15,169.862 C237.756,169.862 252.08,184.186 252.08,201.792 C252.08,219.399 237.756,233.724 220.15,233.724" fill="#888988"/>
    <path d="M220.15,165.773 C200.289,165.773 184.13,181.932 184.13,201.792 C184.13,221.654 200.289,237.812 220.15,237.812 C240.011,237.812 256.168,221.654 256.168,201.792 C256.168,181.932 240.011,165.773 220.15,165.773 z M220.15,173.951 C235.527,173.951 247.991,186.417 247.991,201.792 C247.991,217.17 235.527,229.635 220.15,229.635 C204.773,229.635 192.307,217.17 192.307,201.792 C192.307,186.417 204.773,173.951 220.15,173.951" fill="#010604"/>
    <path d="M501.244,86.151 C501.244,122.377 393.521,151.743 260.613,151.743 C127.706,151.743 19.984,122.377 19.984,86.151 C19.984,49.924 127.706,20.558 260.613,20.558 C393.521,20.558 501.244,49.924 501.244,86.151 z" fill-opacity="0" stroke="#010604" stroke-width="4.906" stroke-linecap="round" stroke-linejoin="round"/>
    <path d="M502.849,409.717 C503.437,409.078 504.023,408.44 504.576,407.769 C504.939,407.33 505.279,406.87 505.626,406.417 C506.142,405.746 506.656,405.069 507.14,404.369 C507.468,403.892 507.779,403.401 508.095,402.911 C508.556,402.19 509.013,401.463 509.445,400.714 C509.734,400.21 510.011,399.697 510.287,399.182 C510.703,398.403 511.105,397.614 511.49,396.808 C511.738,396.289 511.978,395.762 512.212,395.231 C512.587,394.384 512.943,393.521 513.285,392.644 C513.49,392.12 513.693,391.596 513.884,391.062 C514.22,390.126 514.535,389.171 514.835,388.206 C514.992,387.699 515.156,387.196 515.304,386.681 C515.607,385.625 515.884,384.545 516.148,383.455 C516.257,382.999 516.376,382.551 516.48,382.092 C516.757,380.845 517.001,379.573 517.23,378.285 C517.289,377.954 517.357,377.631 517.414,377.295 C518.525,370.6 518.974,363.35 518.81,355.618 C518.806,355.426 518.794,355.229 518.791,355.036 C518.748,353.316 518.677,351.574 518.576,349.807 C518.554,349.458 518.525,349.104 518.503,348.755 C518.398,347.126 518.273,345.485 518.121,343.82 C518.105,343.669 518.099,343.525 518.085,343.375 C518.082,343.374 518.078,343.372 518.076,343.372 C515.4,315.197 505.816,281.802 491.238,246.126 L483.074,299.257 C486.761,311.857 489.445,323.566 491.136,334.215 C491.412,335.938 491.656,337.627 491.876,339.292 C491.91,339.546 491.945,339.802 491.978,340.056 C492.205,341.812 492.408,343.541 492.574,345.233 C492.578,345.257 492.578,345.281 492.582,345.305 C492.742,346.947 492.873,348.551 492.978,350.131 C492.996,350.358 493.011,350.586 493.025,350.811 C493.128,352.43 493.205,354.023 493.25,355.573 C493.25,355.576 493.25,355.579 493.25,355.583 C493.291,357.09 493.296,358.556 493.285,359.997 C493.281,360.222 493.279,360.447 493.277,360.67 C493.253,362.128 493.207,363.558 493.125,364.944 C493.125,364.948 493.125,364.95 493.125,364.953 C493.046,366.299 492.931,367.6 492.798,368.876 C492.775,369.102 492.75,369.329 492.724,369.552 C492.58,370.836 492.412,372.092 492.208,373.302 C492.208,373.317 492.205,373.33 492.201,373.343 C492.005,374.51 491.775,375.631 491.525,376.728 C491.474,376.952 491.423,377.176 491.371,377.396 C491.105,378.5 490.82,379.576 490.5,380.603 C490.49,380.625 490.484,380.648 490.476,380.67 C490.166,381.656 489.826,382.595 489.462,383.508 C489.38,383.721 489.296,383.931 489.21,384.141 C488.828,385.061 488.427,385.953 487.992,386.796 C487.98,386.821 487.964,386.843 487.953,386.867 C487.533,387.676 487.08,388.438 486.609,389.175 C486.49,389.359 486.371,389.542 486.25,389.722 C485.751,390.46 485.238,391.171 484.687,391.832 C484.675,391.845 484.66,391.86 484.646,391.875 C484.111,392.514 483.541,393.102 482.953,393.665 C482.8,393.81 482.648,393.954 482.492,394.094 C481.876,394.648 481.248,395.179 480.58,395.65 C480.095,395.994 479.589,396.309 479.074,396.612 C478.873,396.728 478.666,396.833 478.462,396.943 C478.144,397.117 477.826,397.282 477.498,397.44 C477.224,397.569 476.947,397.693 476.667,397.812 C476.408,397.924 476.142,398.031 475.876,398.135 C475.537,398.265 475.199,398.392 474.849,398.508 C474.667,398.569 474.48,398.623 474.296,398.681 C472.236,399.316 470.003,399.73 467.605,399.91 C448.019,401.378 417.466,387.667 381.91,360.848 C331.988,323.19 277.55,264.381 228.622,195.249 C224.562,189.511 216.619,188.154 210.882,192.212 C205.146,196.273 203.789,204.214 207.847,209.953 C287.638,322.686 395.605,424.499 463.667,425.539 C464.017,425.543 464.375,425.562 464.724,425.562 C476.173,425.562 486.476,422.663 495.285,416.424 C496.457,415.596 497.576,414.718 498.654,413.801 C499.007,413.5 499.33,413.175 499.671,412.866 C500.378,412.228 501.085,411.59 501.75,410.914 C502.13,410.528 502.482,410.117 502.849,409.717" fill="#979897"/>
    <path d="M502.849,409.717 C503.437,409.078 504.023,408.44 504.576,407.769 C504.939,407.33 505.279,406.87 505.626,406.417 C506.142,405.746 506.656,405.069 507.14,404.369 C507.468,403.892 507.779,403.401 508.095,402.911 C508.556,402.19 509.013,401.463 509.445,400.714 C509.734,400.21 510.011,399.697 510.287,399.182 C510.703,398.403 511.105,397.614 511.49,396.808 C511.738,396.289 511.978,395.762 512.212,395.231 C512.587,394.384 512.943,393.521 513.285,392.644 C513.49,392.12 513.693,391.596 513.884,391.062 C514.22,390.126 514.535,389.171 514.835,388.206 C514.992,387.699 515.156,387.196 515.304,386.681 C515.607,385.625 515.884,384.545 516.148,383.455 C516.257,382.999 516.376,382.551 516.48,382.092 C516.757,380.845 517.001,379.573 517.23,378.285 C517.289,377.954 517.357,377.631 517.414,377.295 C518.525,370.6 518.974,363.35 518.81,355.618 C518.806,355.426 518.794,355.229 518.791,355.036 C518.748,353.316 518.677,351.574 518.576,349.807 C518.554,349.458 518.525,349.104 518.503,348.755 C518.398,347.126 518.273,345.485 518.121,343.82 C518.105,343.669 518.099,343.525 518.085,343.375 C518.082,343.374 518.078,343.372 518.076,343.372 C515.4,315.197 505.816,281.802 491.238,246.126 L483.074,299.257 C486.761,311.857 489.445,323.566 491.136,334.215 C491.412,335.938 491.656,337.627 491.876,339.292 C491.91,339.546 491.945,339.802 491.978,340.056 C492.205,341.812 492.408,343.541 492.574,345.233 C492.578,345.257 492.578,345.281 492.582,345.305 C492.742,346.947 492.873,348.551 492.978,350.131 C492.996,350.358 493.011,350.586 493.025,350.811 C493.128,352.43 493.205,354.023 493.25,355.573 C493.25,355.576 493.25,355.579 493.25,355.583 C493.291,357.09 493.296,358.556 493.285,359.997 C493.281,360.222 493.279,360.447 493.277,360.67 C493.253,362.128 493.207,363.558 493.125,364.944 C493.125,364.948 493.125,364.95 493.125,364.953 C493.046,366.299 492.931,367.6 492.798,368.876 C492.775,369.102 492.75,369.329 492.724,369.552 C492.58,370.836 492.412,372.092 492.208,373.302 C492.208,373.317 492.205,373.33 492.201,373.343 C492.005,374.51 491.775,375.631 491.525,376.728 C491.474,376.952 491.423,377.176 491.371,377.396 C491.105,378.5 490.82,379.576 490.5,380.603 C490.49,380.625 490.484,380.648 490.476,380.67 C490.166,381.656 489.826,382.595 489.462,383.508 C489.38,383.721 489.296,383.931 489.21,384.141 C488.828,385.061 488.427,385.953 487.992,386.796 C487.98,386.821 487.964,386.843 487.953,386.867 C487.533,387.676 487.08,388.438 486.609,389.175 C486.49,389.359 486.371,389.542 486.25,389.722 C485.751,390.46 485.238,391.171 484.687,391.832 C484.675,391.845 484.66,391.86 484.646,391.875 C484.111,392.514 483.541,393.102 482.953,393.665 C482.8,393.81 482.648,393.954 482.492,394.094 C481.876,394.648 481.248,395.179 480.58,395.65 C480.095,395.994 479.589,396.309 479.074,396.612 C478.873,396.728 478.666,396.833 478.462,396.943 C478.144,397.117 477.826,397.282 477.498,397.44 C477.224,397.569 476.947,397.693 476.667,397.812 C476.408,397.924 476.142,398.031 475.876,398.135 C475.537,398.265 475.199,398.392 474.849,398.508 C474.667,398.569 474.48,398.623 474.296,398.681 C472.236,399.316 470.003,399.73 467.605,399.91 C448.019,401.378 417.466,387.667 381.91,360.848 C331.988,323.19 277.55,264.381 228.622,195.249 C224.562,189.511 216.619,188.154 210.882,192.212 C205.146,196.273 203.789,204.214 207.847,209.953 C287.638,322.686 395.605,424.499 463.667,425.539 C464.017,425.543 464.375,425.562 464.724,425.562 C476.173,425.562 486.476,422.663 495.285,416.424 C496.457,415.596 497.576,414.718 498.654,413.801 C499.007,413.5 499.33,413.175 499.671,412.866 C500.378,412.228 501.085,411.59 501.75,410.914 C502.13,410.528 502.482,410.117 502.849,409.717 z" fill-opacity="0" stroke="#010604" stroke-width="4.906"/>
    <path d="M260.613,151.743 C329.701,151.743 391.972,143.806 435.855,131.097 C393.888,118.841 330.97,111.048 260.613,111.048 C190.26,111.048 127.336,118.841 85.372,131.097 C129.256,143.806 191.531,151.743 260.613,151.743 z" fill-opacity="0" stroke="#010604" stroke-width="4.906" stroke-linecap="round" stroke-linejoin="round"/>
  </g>
</svg>
